packages/astro-components-stencil/src/icons/local-grocery-store.svg

<svg xmlns="http://www.w3.org/2000/svg" viewBox="0 0 24 24"><g xmlns="http://www.w3.org/2000/svg" id="local-grocery-store" fill-rule="nonzero">
            <path d="M7 18c-1.1 0-1.99.9-1.99 2S5.9 22 7 22s2-.9 2-2-.9-2-2-2zM2 4h1l3.6 7.59-1.35 2.44C4.52 15.37 5.48 17 7 17h11c.55 0 1-.45 1-1s-.45-1-1-1H7l1.1-2h7.45c.75 0 1.41-.41 1.75-1.03l3.58-6.49A.996.996 0 0020.01 4H5.21l-.67-1.43a.993.993 0 00-.9-.57H2c-.55 0-1 .45-1 1s.45 1 1 1zm15 14c-1.1 0-1.99.9-1.99 2s.89 2 1.99 2 2-.9 2-2-.9-2-2-2z"/>
        </g></svg>

<svg width="24" height="24" viewBox="0 0 24 24" fill="none" xmlns="http://www.w3.org/2000/svg">
<path fill-rule="evenodd" clip-rule="evenodd" d="M2 4H3L6.6 11.59L5.25 14.03C4.52 15.37 5.48 17 7 17H18C18.55 17 19 16.55 19 16C19 15.45 18.55 15 18 15H7L8.1 13H15.55C16.3 13 16.96 12.59 17.3 11.97L20.88 5.48C21.25 4.82 20.77 4 20.01 4H5.21L4.54 2.57C4.38 2.22 4.02 2 3.64 2H2C1.45 2 1 2.45 1 3C1 3.55 1.45 4 2 4ZM7 18C5.9 18 5.01 18.9 5.01 20C5.01 21.1 5.9 22 7 22C8.1 22 9 21.1 9 20C9 18.9 8.1 18 7 18ZM15.01 20C15.01 18.9 15.9 18 17 18C18.1 18 19 18.9 19 20C19 21.1 18.1 22 17 22C15.9 22 15.01 21.1 15.01 20Z" fill="black"/>
</svg>
